X: 4024
M: C|
L: 1/8
K: A
e |\
agae cAAc | dcBA GBEg |\
agae cAAa | fdBG A2-A :|\
cBAc (dB)TB2 | cBAc Beed |
cBAc dfBd | cABG A2(AB) |\
cBAc dfBd | cBAc Beed |\
cAec fdba | gbeg a2-a |]


